X:1
T:[ID 2-3b]
T:[ID 2-3b]
T:Bezeichnung standardisiert: Menuett Men.
T:Urheber unbekannt Erstbeleg: 1776-1791 (Datum in der schriftlichen Quelle) Datum in der hier transkribierten schriftlichen Quelle: vermutlich um 1800
C:Urheber unbekannt
C:Erstbeleg: 1776-1791 (Datum in der schriftlichen Quelle)
C:Datum in der hier transkribierten schriftlichen Quelle: vermutlich um 1800
%%score 1 2
L:1/8
M:3/8
K:A
V:1 treble nm="Viol. Primo"
V:2 treble nm="Viol. Secondo"
V:1
 e3 dcA | d2 B4 | .c2 .d2 .e2 | .f2 .g2 .a2 | e3 dcA | d2 B4 | (ae)(ed)(dc) | c2 B4 :: %8
 .e2 .e2 .e2 | .f2 .f2 .f2 | .g2 .g2 .g2 | agab a2 | e3 dce | d2 B4 | (3agf edcA | B2 A4 :| %16
V:2
 !fermata!c3 BAc | B2 G4 | .A2 .B2 .c2 | .d2 .e2 .f2 | c3 BAc | B2 G4 | (cc)(cB)(BA) | A2 G4 :: %8
 c2 c2 c2 | d2 d2 d2 | e2 e2 e2 | cBcd c2 | c3 BAc | B2 G4 | (3fed cBEC | D2 C4 :| %16

